X:2028
L:1/8
M:6/8
K:D
 DED F2 A | d2 d cBA | B2 A Bcd | e2 d e2 f | DED F2 A | d2 d cBA | B2 A B2 c | d3 d2 || 
 !fermata!e | f2 f fed | B2 B BAF | ABA g2 f | e3 efg | f2 a fed | B2 d BAF | ABA B2 c | 
 d3 d2 z!D.C.!O ||"^Trio" F/G/ | ABA AFA | d2 e f2 d | ABA AGF | G3- G2 F/G/ | ABA AFA | 
 d2 e f2 d | ecA ABc | d3 d2 z!D.C.! ||

